X: 3
T: Miss Thornton's
R: reel
M: 4/4
L: 1/8
K: Gmaj
|: G2B/c/d gdBd | cBA2 cedc | BGAF GBdg | ecAF GFED |G2B/c/d gdBd | cBA2 cedc | BGAF GBdg |1 ecAF G4 :|2 egfa g4 |||: bggg bgag | egdg egdg | bggg bgag | eaag a4 |bggg bgag | egdg egdg | bgaf gfed |1 e/f/gfa g4 :|2 ezf/e/f gedB ||


Tune 744	Setting 29989

